Sources/FrostedUI/Resources/Icons.xcassets/trash12.imageset/trash-12.svg

<svg width="12" height="12" viewBox="0 0 12 12" fill="none" xmlns="http://www.w3.org/2000/svg" data-fui-icon="true">
  <path
    d="M6.75586 0C7.52867 0 8.21055 0.506848 8.43262 1.24707L8.80859 2.5H11.25C11.6642 2.5 12 2.83579 12 3.25C12 3.66421 11.6642 4 11.25 4H10.6553L9.81836 10.1416C9.72499 11.1904 8.84706 12 7.78809 12H4.21191C3.15294 12 2.27501 11.1904 2.18164 10.1416L1.34473 4H0.75C0.335786 4 0 3.66421 0 3.25C0 2.83579 0.335786 2.5 0.75 2.5H3.19141L3.56738 1.24707C3.78945 0.506848 4.47133 0 5.24414 0H6.75586ZM3.66797 9.93945L3.67285 9.99414L2.93066 10.0391L2.9248 10.04L3.67285 9.99414C3.69086 10.2785 3.92691 10.5 4.21191 10.5H7.78809C8.07309 10.5 8.30914 10.2785 8.32715 9.99414L9.07422 10.04L9.06836 10.0391L8.32715 9.99414C8.32828 9.97602 8.32959 9.95744 8.33203 9.93945L9.14062 4H2.85938L3.66797 9.93945ZM5.24414 1.5C5.1339 1.5 5.03676 1.57225 5.00488 1.67773L4.75879 2.5H7.24121L6.99512 1.67773C6.96324 1.57225 6.8661 1.5 6.75586 1.5H5.24414Z"
    fill="currentColor"
  />
</svg>

<svg xmlns="http://www.w3.org/2000/svg" width="12" height="12" fill="none" data-fui-icon="true" viewBox="0 0 12 12"><path fill="currentColor" d="M6.756 0a1.75 1.75 0 0 1 1.677 1.247L8.809 2.5h2.441a.75.75 0 0 1 0 1.5h-.595l-.837 6.142A2.04 2.04 0 0 1 7.788 12H4.212a2.04 2.04 0 0 1-2.03-1.858L1.345 4H.75a.75.75 0 0 1 0-1.5h2.441l.376-1.253A1.75 1.75 0 0 1 5.244 0zM3.668 9.94l.005.054-.742.045-.006.001.748-.046a.54.54 0 0 0 .539.506h3.576a.54.54 0 0 0 .54-.506l.746.046h-.006l-.74-.046.004-.055L9.141 4H2.859zM5.244 1.5a.25.25 0 0 0-.24.178L4.76 2.5H7.24l-.246-.822a.25.25 0 0 0-.24-.178z"/></svg>
